X: 4355
T: SUCH CHIMING. (Magic Flute.)
%R: air, march
B: James Kerr "Merry Melodies" v.4 p.38 #355
Z: 2016 John Chambers <jc:trillian.mit.edu>
M: C|
L: 1/8
K: G
(dc) |\
B2g2 b2dB | c2fa c'2(cB) |\
A2f2 a2f2 | gbgb g2(dc) |\
B2dg b2dB | c2ea c'2ec |\
Bdgb Acfa | g2b2g2 :|
(cB) |\
A2f2 a2Ac | B2g2 b2Bd |\
c2a2 c'2f2 | gbgb d'2(dc) |\
B2dg b2dB | c2ea c'2ec |\
Bdgb | Acfa | g2b2 g2(cB) |
Adfd a2(Ac) | Bdgd b2(Bd) |\
cfaf c'2(fa) | gbgb d'2(dc) |\
B2dg b2dB | c2ea c'2ec | Bdgb Acfa | g2b2g2 |]

%%sep 1 1 500
%%sep 1 1 500

